X:1
T:Mortals learn your Lives to measure
T:Call George again
T:A Catch, a 3 Voc. by Mr. John Hilton
%%score [ 1 2 3 ]
L:1/8
Q:1/4=60
M:2/2
K:Eb
V:1 treble nm="I"
V:2 treble nm="II"
V:3 treble nm="III"
V:1
 G2 G3/2 A/ B2 G2 | G2 F3/2 E/ F3 F | G3/2 A/ B3/2 c/ B2 E2 | G2 F3/2 E/ E4 :| %4
w: Call George a- gain Boy,|call George a- gain, and|for the love of Bacc- hus|call George a- gain.|
V:2
 E2 E3/2 E/ E2 E E | E2 D3/2 C/ B,3 B, | E2 E E B, B, A,2 | B,2 B,3/2 B,/ E4 :| %4
w: George is a good Boy, and|draws us good Wine, then|fill us more Cla- ret, our|wits to re- fine.|
V:3
 B2 B3/2 A/ G2 E2 | B B c c d4 | e2 G3/2 A/ B2 B3/2 c/ | B2 B3/2 A/ G4 :| %4
w: George is a brave Lad,|and an hon- est Man.|If you will know him he|dwells at the Swan.|

